src/assets/icons/stroke/alignLeft.svg

<svg xmlns="http://www.w3.org/2000/svg" width="1em" height="1em" fill="none"><path fill="currentColor" d="M3 18h6v-2H3v2Zm0-7v2h12v-2H3Zm0-5v2h18V6H3Z"/></svg>

<svg width="1em" height="1em" viewBox="0 0 24 24" fill="none" xmlns="http://www.w3.org/2000/svg">
<path d="M3 18H9V16H3V18ZM3 11V13H15V11H3ZM3 6V8H21V6H3Z" fill="currentColor"/>
</svg>
